launcher/android/assets/skins/day/svg/mapWherigo1.svg

<svg enable-background="new 0 0 258.00 258.00" height="258" viewBox="0 0 258 258" width="258" xmlns="http://www.w3.org/2000/svg"><g stroke-linejoin="round" stroke-width=".2"><g fill="#808080"><path d="m134.223 47.4207c17.486 1.3368 30.578 6.7737 42.925 14.9341l11.184-14.6548c-14.819-11.1839-32.892-18.2215-52.53-19.4074z"/><path d="m46.6303 108.998c.837-3.137 1.8591-6.189 3.0547-9.1471l-13.1265-4.5162c-1.1875 3.5276-2.18 7.1443-2.9645 10.8373z"/><path d="m119.008 214.814c-2.269-.367-4.51-.814-6.72-1.34l-1.362 8.599c2.423.484 4.876.881 7.355 1.187z"/><path d="m101.41 210.171c-14.6598-5.455-27.5114-14.473-37.3249-25.972l-7.5695 7.062c11.3633 12.524 25.9387 22.125 42.3421 27.604z"/><path d="m59.0031 177.634c-1.5837-2.263-3.0582-4.602-4.4159-7.011l-9.2863 5.612c1.6388 2.705 3.4067 5.323 5.2948 7.848z"/><path d="m212.636 148.863c-1.132 6.246-2.756 12.274-4.988 17.99l6.007 2.857c2.628-6.205 4.491-12.69 5.495-19.311z"/><path d="m204.523 173.851c-2.727 5.376-6.094 10.407-10.211 15.004l4.681 4.195c4.302-4.93 8.03-10.287 11.101-15.949z"/><path d="m187.59 195.387c-1.923 1.628-3.971 3.182-6.15 4.657l4.091 5.579c2.245-1.706 4.402-3.508 6.462-5.398z"/><path d="m208.551 101.386c1.727 5.22 3.336 12.708 4.827 24.125l5.562-.053c-1.461-11.597-3.337-19.721-5.463-25.5881z"/><path d="m198.196 85.0684c3.186 2.9304 6.058 4.3619 8.619 10.6988l4.1-1.0326c-2.932-6.6208-6.434-9.0234-9.88-10.9742z"/><path d="m219.827 133.766-5.514-.431c.034.308.068.619.102.932-.146 2.123-.335 4.231-.571 6.319l6.131.851c.082-2.549.034-5.109-.148-7.671z"/><path d="m130.623 224.017c16.696 0 32.042-4.431 45.132-11.924l-3.734-6.598c-10.233 5.043-22.74 8.671-37.96 10.522-3.002 0-5.973-.141-8.905-.418l-.139 8.263c1.857.103 3.726.155 5.606.155z"/><path d="m31.4564 126.601c0 14.616 3.2647 28.41 9.086 40.769l10.0799-4.749c-4.3192-10.034-6.7077-21.036-6.7077-32.604 0-4.392.3376-8.676.989-12.832l-12.8509-1.441c-.3939 3.565-.5963 7.187-.5963 10.857z"/><path d="m191.415 73.0174c4.273-2.2957 14.212-8.6678 12.058-11.1553-2.122-2.4512-4.362-4.7954-6.712-7.0236l-12.188 12.7862c2.273 1.7157 4.545 3.5161 6.842 5.3927z"/><path d="m115.304 29.1997 2.446 19.3249c2.316-.3559 4.663-.6328 7.036-.828l-.706-19.4123c-2.96.1743-5.888.4815-8.776.9154z"/><path d="m39.8737 86.8253 13.0988 5.9382c11.1862-21.256 31.831-36.6936 56.8155-42.6778l-4.394-18.8658c-29.2419 7.5631-53.3997 28.3336-65.5203 55.6054z"/></g><ellipse cx="128.29" cy="131.351" fill="#12508c" rx="76.5" ry="77"/><path d="m96.789 126.511 61.667-25.333-26 62.666z" fill="#fff"/><path d="m219.622 72.1602h-5.6v15.9599h-4.48v-15.9599h-5.6v-3.64h15.68z"/><path d="m244.542 88.1201h-4.48v-11.7293c0-1.266.057-2.6645.17-4.1957h-.109c-.227 1.2046-.433 2.0708-.617 2.5989l-4.593 13.3261h-3.61l-4.677-13.1906c-.128-.3557-.334-1.2672-.617-2.7344h-.122c.117 1.9338.175 3.6298.175 5.0881v10.8369h-3.92v-19.5999h6.409l4.003 11.62c.321.9273.555 1.8608.7 2.7999h.083c.246-1.085.505-2.0284.779-2.8306l4.003-11.5893h6.423z"/></g></svg>

﻿<?xml version="1.0" encoding="utf-8"?>
<!DOCTYPE svg PUBLIC "-//W3C//DTD SVG 1.1//EN" "http://www.w3.org/Graphics/SVG/1.1/DTD/svg11.dtd">
<svg xmlns="http://www.w3.org/2000/svg" xmlns:xlink="http://www.w3.org/1999/xlink" version="1.1" baseProfile="full" width="258" height="258" viewBox="0 0 258.00 258.00" enable-background="new 0 0 258.00 258.00" xml:space="preserve">
	<g>
		<g>
			<path fill="#808080" fill-opacity="1" stroke-width="0.2" stroke-linejoin="round" d="M 134.223,47.4207C 151.709,48.7575 164.801,54.1944 177.148,62.3548L 188.332,47.7C 173.513,36.5161 155.44,29.4785 135.802,28.2926L 134.223,47.4207 Z "/>
			<path fill="#808080" fill-opacity="1" stroke-width="0.2" stroke-linejoin="round" d="M 46.6303,108.998C 47.4673,105.861 48.4894,102.809 49.685,99.8509L 36.5585,95.3347C 35.371,98.8623 34.3785,102.479 33.594,106.172L 46.6303,108.998 Z "/>
			<path fill="#808080" fill-opacity="1" stroke-width="0.2" stroke-linejoin="round" d="M 119.008,214.814C 116.739,214.447 114.498,214 112.288,213.474L 110.926,222.073C 113.349,222.557 115.802,222.954 118.281,223.26L 119.008,214.814 Z "/>
			<path fill="#808080" fill-opacity="1" stroke-width="0.2" stroke-linejoin="round" d="M 101.41,210.171C 86.7502,204.716 73.8986,195.698 64.0851,184.199L 56.5156,191.261C 67.8789,203.785 82.4543,213.386 98.8577,218.865L 101.41,210.171 Z "/>
			<path fill="#808080" fill-opacity="1" stroke-width="0.2" stroke-linejoin="round" d="M 59.0031,177.634C 57.4194,175.371 55.9449,173.032 54.5872,170.623L 45.3009,176.235C 46.9397,178.94 48.7076,181.558 50.5957,184.083L 59.0031,177.634 Z "/>
			<path fill="#808080" fill-opacity="1" stroke-width="0.2" stroke-linejoin="round" d="M 212.636,148.863C 211.504,155.109 209.88,161.137 207.648,166.853L 213.655,169.71C 216.283,163.505 218.146,157.02 219.15,150.399L 212.636,148.863 Z "/>
			<path fill="#808080" fill-opacity="1" stroke-width="0.2" stroke-linejoin="round" d="M 204.523,173.851C 201.796,179.227 198.429,184.258 194.312,188.855L 198.993,193.05C 203.295,188.12 207.023,182.763 210.094,177.101L 204.523,173.851 Z "/>
			<path fill="#808080" fill-opacity="1" stroke-width="0.2" stroke-linejoin="round" d="M 187.59,195.387C 185.667,197.015 183.619,198.569 181.44,200.044L 185.531,205.623C 187.776,203.917 189.933,202.115 191.993,200.225L 187.59,195.387 Z "/>
			<path fill="#808080" fill-opacity="1" stroke-width="0.2" stroke-linejoin="round" d="M 208.551,101.386C 210.278,106.606 211.887,114.094 213.378,125.511L 218.94,125.458C 217.479,113.861 215.603,105.737 213.477,99.8699L 208.551,101.386 Z "/>
			<path fill="#808080" fill-opacity="1" stroke-width="0.2" stroke-linejoin="round" d="M 198.196,85.0684C 201.382,87.9988 204.254,89.4303 206.815,95.7672L 210.915,94.7346C 207.983,88.1138 204.481,85.7112 201.035,83.7604L 198.196,85.0684 Z "/>
			<path fill="#808080" fill-opacity="1" stroke-width="0.2" stroke-linejoin="round" d="M 219.827,133.766L 214.313,133.335C 214.347,133.643 214.381,133.954 214.415,134.267C 214.269,136.39 214.08,138.498 213.844,140.586L 219.975,141.437C 220.057,138.888 220.009,136.328 219.827,133.766 Z "/>
			<path fill="#808080" fill-opacity="1" stroke-width="0.2" stroke-linejoin="round" d="M 130.623,224.017C 147.319,224.017 162.665,219.586 175.755,212.093L 172.021,205.495C 161.788,210.538 149.281,214.166 134.061,216.017C 131.059,216.017 128.088,215.876 125.156,215.599L 125.017,223.862C 126.874,223.965 128.743,224.017 130.623,224.017 Z "/>
			<path fill="#808080" fill-opacity="1" stroke-width="0.2" stroke-linejoin="round" d="M 31.4564,126.601C 31.4564,141.217 34.7211,155.011 40.5424,167.37L 50.6223,162.621C 46.3031,152.587 43.9146,141.585 43.9146,130.017C 43.9146,125.625 44.2522,121.341 44.9036,117.185L 32.0527,115.744C 31.6588,119.309 31.4564,122.931 31.4564,126.601 Z "/>
			<path fill="#808080" fill-opacity="1" stroke-width="0.2" stroke-linejoin="round" d="M 191.415,73.0174C 195.688,70.7217 205.627,64.3496 203.473,61.8621C 201.351,59.4109 199.111,57.0667 196.761,54.8385L 184.573,67.6247C 186.846,69.3404 189.118,71.1408 191.415,73.0174 Z "/>
			<path fill="#808080" fill-opacity="1" stroke-width="0.2" stroke-linejoin="round" d="M 115.304,29.1997L 117.75,48.5246C 120.066,48.1687 122.413,47.8918 124.786,47.6966L 124.08,28.2843C 121.12,28.4586 118.192,28.7658 115.304,29.1997 Z "/>
			<path fill="#808080" fill-opacity="1" stroke-width="0.2" stroke-linejoin="round" d="M 39.8737,86.8253L 52.9725,92.7635C 64.1587,71.5075 84.8035,56.0699 109.788,50.0857L 105.394,31.2199C 76.1521,38.783 51.9943,59.5535 39.8737,86.8253 Z "/>
		</g>
		<ellipse fill="#12508C" fill-opacity="1" stroke-width="0.2" stroke-linejoin="round" cx="128.29" cy="131.351" rx="76.5" ry="77"/>
		<path fill="#FFFFFF" fill-opacity="1" stroke-width="0.2" stroke-linejoin="round" d="M 96.789,126.511L 158.456,101.178L 132.456,163.844L 96.789,126.511 Z "/>
		<g>
			<path fill="#000000" fill-opacity="1" stroke-width="0.2" stroke-linejoin="round" d="M 219.622,72.1602L 214.022,72.1602L 214.022,88.1201L 209.542,88.1201L 209.542,72.1602L 203.942,72.1602L 203.942,68.5202L 219.622,68.5202L 219.622,72.1602 Z "/>
			<path fill="#000000" fill-opacity="1" stroke-width="0.2" stroke-linejoin="round" d="M 244.542,88.1201L 240.062,88.1201L 240.062,76.3908C 240.062,75.1248 240.119,73.7263 240.232,72.1951L 240.123,72.1951C 239.896,73.3997 239.69,74.2659 239.506,74.794L 234.913,88.1201L 231.303,88.1201L 226.626,74.9295C 226.498,74.5738 226.292,73.6623 226.009,72.1951L 225.887,72.1951C 226.004,74.1289 226.062,75.8249 226.062,77.2832L 226.062,88.1201L 222.142,88.1201L 222.142,68.5202L 228.551,68.5202L 232.554,80.1402C 232.875,81.0675 233.109,82.001 233.254,82.9401L 233.337,82.9401C 233.583,81.8551 233.842,80.9117 234.116,80.1095L 238.119,68.5202L 244.542,68.5202L 244.542,88.1201 Z "/>
		</g>
	</g>
</svg>
